X:83
T:Wandering Minstrel, The
R:jig
H:See also #468
Z:id:hn-jig-83
M:6/8
K:D
ADD BAF | Ade fdB | ADD BAG | F/G/AF GFE |
ADD BAF | Ade fdB | AdB AFE |1 FDD D2B :|2 FDD D2g ||
|: fdf ede | fdB AFA | ~B3 AFd | AGF E2g |
~f3 ede | fdB AFA | ~B3 AFE |1 FDD D2g :|2 FDD D2e ||
|: fef afd | gbe gbe | ~f3 afd | ceA ceA |
fef afd | gbe gbe | ~f3 ede |1 fdc d2e :|2 fdc d2B ||
P:variations
|: ADD BAF | Ade fdB | ADD BAG | ~F3 GFE |
ADD BAF | Ade fdB | AdB AFE |1 FDD D2B :|2 FDD D2e ||
|: faf ede | fdB AFA | B/c/dB AFA | AGF E2e |
~f3 ede | fdB AFA | ~B3 AFE |1 FDD D2e :|2 FDD D2e ||
|: ~f3 afd | gbe gbe | fdf afd | ceA ceg |
~f3 afd | gbe gbe | f/g/af efg |1 fdc d2e :|2 fdc d2B ||

